svgs/email.svg

<svg height="60" viewBox="0 0 60 60" width="60" xmlns="http://www.w3.org/2000/svg"><path d="m29.9992 0c-16.5678 0-29.999 13.4316-29.999 29.9994 0 16.5674 13.4312 30 29.999 30s30-13.4326 30-30c0-16.5678-13.4322-29.9994-30-29.9994zm.0006 10.5372 17.7526 11.07h-35.5052zm17.9738 28.7474h-.0018c0 1.7756-1.439 3.2144-3.2144 3.2144h-29.5152c-1.7756 0-3.2144-1.439-3.2144-3.2144v-16.973c0-.1878.0192-.3704.0504-.5498l16.9616 10.5766c.0208.013.043.0218.0644.0338.0224.0124.0452.0244.068.0358.1198.0618.2432.1116.3694.1442.013.0036.026.0052.039.0082.1384.0326.2786.053.4186.053h.001.002c.14 0 .2802-.0198.4186-.053.013-.0032.026-.0046.039-.0082.126-.0326.249-.0824.3694-.1442.0228-.0114.0456-.0234.068-.0358.0212-.012.0436-.0208.0644-.0338l16.9616-10.5766c.0312.1794.0504.3616.0504.5498z" fill="#e96e14" fill-rule="evenodd"/></svg>

<?xml version="1.0" encoding="UTF-8"?>
<svg width="60px" height="60px" viewBox="0 0 60 60" version="1.1" xmlns="http://www.w3.org/2000/svg" xmlns:xlink="http://www.w3.org/1999/xlink">
    <!-- Generator: Sketch 41.2 (35397) - http://www.bohemiancoding.com/sketch -->
    <title>email</title>
    <desc>Created with Sketch.</desc>
    <defs></defs>
    <g id="Page-1" stroke="none" stroke-width="1" fill="none" fill-rule="evenodd">
        <g id="Desktop-HD" transform="translate(-948.000000, -1431.000000)" fill="#E96E14">
            <g id="Group-2" transform="translate(433.000000, 1431.000000)">
                <g id="email" transform="translate(515.000000, 0.000000)">
                    <g id="Layer_1">
                        <path d="M29.9992,0 C13.4314,0 0.0002,13.4316 0.0002,29.9994 C0.0002,46.5668 13.4314,59.9994 29.9992,59.9994 C46.567,59.9994 59.9992,46.5668 59.9992,29.9994 C59.9992,13.4316 46.567,0 29.9992,0 Z M29.9998,10.5372 L47.7524,21.6072 L12.2472,21.6072 L29.9998,10.5372 Z M47.9736,39.2846 L47.9718,39.2846 C47.9718,41.0602 46.5328,42.499 44.7574,42.499 L15.2422,42.499 C13.4666,42.499 12.0278,41.06 12.0278,39.2846 L12.0278,22.3116 C12.0278,22.1238 12.047,21.9412 12.0782,21.7618 L29.0398,32.3384 C29.0606,32.3514 29.0828,32.3602 29.1042,32.3722 C29.1266,32.3846 29.1494,32.3966 29.1722,32.408 C29.292,32.4698 29.4154,32.5196 29.5416,32.5522 C29.5546,32.5558 29.5676,32.5574 29.5806,32.5604 C29.719,32.593 29.8592,32.6134 29.9992,32.6134 L30.0002,32.6134 L30.0022,32.6134 C30.1422,32.6134 30.2824,32.5936 30.4208,32.5604 C30.4338,32.5572 30.4468,32.5558 30.4598,32.5522 C30.5858,32.5196 30.7088,32.4698 30.8292,32.408 C30.852,32.3966 30.8748,32.3846 30.8972,32.3722 C30.9184,32.3602 30.9408,32.3514 30.9616,32.3384 L47.9232,21.7618 C47.9544,21.9412 47.9736,22.1234 47.9736,22.3116 L47.9736,39.2846 Z" id="Shape"></path>
                    </g>
                </g>
            </g>
        </g>
    </g>
</svg>
